X:1
T:Possum a Gum Stump
L:1/8
M:none
I:linebreak $
K:G
V:1 treble nm="Voice" snm="Voice"
V:1
 B,A, |"G" G,2 G,2 [A,A]2 B,A,G,B, | CB,CD EFGE | D2 DE DCB,G, | A,3 B, A,2 B,A, |$ %5
 G,2 G,A, B,A,G,B, | CB,CD EFGE | DEFG AcBA | G2 GF G2 ::$ (3DEF | G2 BG A2 [Gg]2 B2 | %11
 G2 cG BG c2 | G2 BG AG B2 | F4 c2 F |$ G2 D2 B,2 G,2 | CB,CD EFGE | DEFG AcBA | G2 GF G2 :| %18
